X:6
T:T206- The Lads of Saltcots
S:Rutherford's 24 CD's for 1758
Q:80
L:1/4
M:C|
j:3#
K:A
A3/2 c/ B/A/B/c/|A/F/E/F/ B/4B/4B/B|A3/2c/ B/A/B/c/|\
A/F/E/F/ A/4A/4A/A::(e/f/4g/4 a/)c/ ~B/A/(B/c/)|\
e/f/4g/4 a/c/ B/4B/4B/B|(e/f/4g/4 a/)c/ ~B/A/B/c/|\
A/F/E/F/ A/4A/4A/A:|]

